X: 1
T: The Hatchlings
R: jig
M: 6/8
L: 1/8
K: Edor
D|:E/F/GA Bgf|eEF G2F|E/F/GA B2A|Bcd DGF|
E/F/GA B2A|Bgf efg|~B3 AFG|1AGF E2 D:|2AGF E2 f||
|:gab agf|gfe Bef|g2b agf|edc def|
|1 gab agf|gef gab|~B3 AFG|AGF E2 f:|
|2 g2g e/f/ge| fec def|~B3 AFG|AGF E2 D|

